X:1
T:Moncrieffe House
T:Moncrieffe House
T:Alexander Walker
C:Alexander Walker
L:1/8
M:4/4
K:Bb
V:1 treble 
V:1
 F | B>cd>c B>FG<B | F<B,D>C B,<G,G,>F | B>cd>c B<GG<B | F>G B>d{d} (c2 c) :| g | f<Bd>B G>B F>B | %7
 E>GD>F C<cc>g | f<Bd>B G<BF>E | Dgf>a b<BB>g | f<Bd>B G>B F>B | E>GD>F C<c c>d | e<gd<f c<dB<c | %13
 G<BF<B DB,B, || %14

